build/flags/Eritrea.svg

<svg xmlns="http://www.w3.org/2000/svg" fill="none" viewBox="0 0 28 28" focusable="false"><defs><filter id="Eritrea_svg__a"><feColorMatrix values="0 0 0 0 1 0 0 0 0 1 0 0 0 0 1 0 0 0 1 0"/></filter></defs><mask id="Eritrea_svg__b" width="28" height="20" x="0" y="4" maskUnits="userSpaceOnUse"><g filter="url(#Eritrea_svg__a)"><rect width="28" height="20" y="4" fill="#FFF" rx="3"/><rect width="28" height="20" y="4" stroke="#969696" stroke-opacity="0" stroke-width="0" rx="3"/></g></mask><path fill="none" d="M0 0H28V28H0z"/><rect width="28" height="20" y="4" fill="#FFF" rx="3"/><rect width="28" height="20" y="4" rx="3"/><g mask="url(#Eritrea_svg__b)"><path fill="#29C53F" fill-rule="evenodd" d="M28 4L28 14L0 14L0 4L28 4Z"/><path d="M28 14L0 14L0 4L28 4L28 14Z"/><path fill="#579DED" fill-rule="evenodd" d="M28 14L28 24.6667L0 24.6667L0 14L28 14Z"/><path d="M28 24.6667L0 24.6667L0 14L28 14L28 24.6667Z"/><path fill="#F42D56" fill-rule="evenodd" d="M0 24L28 14L0 4L0 24Z"/><path d="M28 14L0 4L0 24L28 14Z"/><path fill="none" d="M8.66667 18.6667C11.244 18.6667 13.3333 16.5774 13.3333 14C13.3333 11.4227 11.244 9.33337 8.66667 9.33337C6.08934 9.33337 4 11.4227 4 14C4 16.5774 6.08934 18.6667 8.66667 18.6667Z"/><path fill="#FFC63C" fill-rule="evenodd" d="M13.3333 14C13.3333 16.5774 11.244 18.6667 8.66667 18.6667C6.08934 18.6667 4 16.5774 4 14C4 11.4227 6.08934 9.33337 8.66667 9.33337C11.244 9.33337 13.3333 11.4227 13.3333 14ZM11.9135 13.2392C11.9712 13.4861 12 13.7397 12 14C12 14.2604 11.9712 14.514 11.9135 14.7609C11.871 14.9433 11.8126 15.122 11.7386 15.2971C11.6616 15.4792 11.57 15.6519 11.4639 15.8151C11.3377 16.0091 11.191 16.1898 11.0237 16.3571C10.8564 16.5244 10.6757 16.6711 10.4817 16.7973C10.3185 16.9034 10.1459 16.9949 9.96374 17.072C9.78868 17.146 9.60995 17.2043 9.42754 17.2469C9.18065 17.3046 8.92702 17.3334 8.66667 17.3334C8.40633 17.3334 8.15272 17.3046 7.90583 17.2469C7.72341 17.2043 7.54467 17.146 7.36959 17.072C7.18746 16.9949 7.01479 16.9034 6.85158 16.7972C6.65757 16.6711 6.47692 16.5243 6.30964 16.3571C6.14235 16.1898 5.99562 16.0091 5.86945 15.8151C5.76333 15.6519 5.67176 15.4792 5.59474 15.2971C5.52069 15.1221 5.46237 14.9433 5.41979 14.7609C5.36215 14.514 5.33333 14.2604 5.33333 14C5.33333 13.7397 5.36215 13.4861 5.41979 13.2392C5.46237 13.0568 5.52069 12.878 5.59474 12.703C5.67176 12.5209 5.76334 12.3482 5.86945 12.185C5.99562 11.991 6.14235 11.8103 6.30964 11.643C6.47694 11.4757 6.6576 11.329 6.85163 11.2028C7.01483 11.0967 7.18748 11.0051 7.36959 10.9281C7.54466 10.8541 7.72339 10.7957 7.9058 10.7532C8.1527 10.6955 8.40632 10.6667 8.66667 10.6667C8.92702 10.6667 9.18064 10.6955 9.42753 10.7532C9.60994 10.7957 9.78868 10.8541 9.96374 10.9281C10.1459 11.0051 10.3185 11.0967 10.4817 11.2028C10.6757 11.329 10.8564 11.4757 11.0237 11.643C11.191 11.8103 11.3377 11.991 11.4639 12.185C11.57 12.3482 11.6616 12.5209 11.7386 12.703C11.8126 12.878 11.871 13.0568 11.9135 13.2392Z"/><path fill="#FFC63C" fill-rule="evenodd" d="M7.99998 13.3333C8.36817 13.3333 8.66665 13.0349 8.66665 12.6667C8.66665 12.2985 8.36817 12 7.99998 12C7.63179 12 7.33331 12.2985 7.33331 12.6667C7.33331 13.0349 7.63179 13.3333 7.99998 13.3333Z"/><path d="M8.66665 12.6667C8.66665 12.2985 8.36817 12 7.99998 12C7.63179 12 7.33331 12.2985 7.33331 12.6667C7.33331 13.0349 7.63179 13.3333 7.99998 13.3333C8.36817 13.3333 8.66665 13.0349 8.66665 12.6667Z"/><path fill="#FFC63C" fill-rule="evenodd" d="M9.33335 14C9.70154 14 10 13.7015 10 13.3333C10 12.9651 9.70154 12.6666 9.33335 12.6666C8.96516 12.6666 8.66669 12.9651 8.66669 13.3333C8.66669 13.7015 8.96516 14 9.33335 14Z"/><path d="M10 13.3333C10 12.9651 9.70154 12.6666 9.33335 12.6666C8.96516 12.6666 8.66669 12.9651 8.66669 13.3333C8.66669 13.7015 8.96516 14 9.33335 14C9.70154 14 10 13.7015 10 13.3333Z"/><path fill="#FFC63C" fill-rule="evenodd" d="M8.66667 12.6667C9.03486 12.6667 9.33333 12.3682 9.33333 12C9.33333 11.6319 9.03486 11.3334 8.66667 11.3334C8.29848 11.3334 8 11.6319 8 12C8 12.3682 8.29848 12.6667 8.66667 12.6667Z"/><path d="M9.33333 12C9.33333 11.6319 9.03486 11.3334 8.66667 11.3334C8.29848 11.3334 8 11.6319 8 12C8 12.3682 8.29848 12.6667 8.66667 12.6667C9.03486 12.6667 9.33333 12.3682 9.33333 12Z"/><path fill="#FFC63C" fill-rule="evenodd" d="M7.99998 14.6667C8.36817 14.6667 8.66665 14.3682 8.66665 14C8.66665 13.6319 8.36817 13.3334 7.99998 13.3334C7.63179 13.3334 7.33331 13.6319 7.33331 14C7.33331 14.3682 7.63179 14.6667 7.99998 14.6667Z"/><path d="M8.66665 14C8.66665 13.6319 8.36817 13.3334 7.99998 13.3334C7.63179 13.3334 7.33331 13.6319 7.33331 14C7.33331 14.3682 7.63179 14.6667 7.99998 14.6667C8.36817 14.6667 8.66665 14.3682 8.66665 14Z"/><path fill="#FFC63C" fill-rule="evenodd" d="M9.33335 15.3333C9.70154 15.3333 10 15.0349 10 14.6667C10 14.2985 9.70154 14 9.33335 14C8.96516 14 8.66669 14.2985 8.66669 14.6667C8.66669 15.0349 8.96516 15.3333 9.33335 15.3333Z"/><path d="M10 14.6667C10 14.2985 9.70154 14 9.33335 14C8.96516 14 8.66669 14.2985 8.66669 14.6667C8.66669 15.0349 8.96516 15.3333 9.33335 15.3333C9.70154 15.3333 10 15.0349 10 14.6667Z"/><path fill="#FFC63C" fill-rule="evenodd" d="M7.99998 16C8.36817 16 8.66665 15.7015 8.66665 15.3333C8.66665 14.9651 8.36817 14.6666 7.99998 14.6666C7.63179 14.6666 7.33331 14.9651 7.33331 15.3333C7.33331 15.7015 7.63179 16 7.99998 16Z"/><path d="M8.66665 15.3333C8.66665 14.9651 8.36817 14.6666 7.99998 14.6666C7.63179 14.6666 7.33331 14.9651 7.33331 15.3333C7.33331 15.7015 7.63179 16 7.99998 16C8.36817 16 8.66665 15.7015 8.66665 15.3333Z"/><path fill="#FFC63C" fill-rule="evenodd" d="M9.33335 16.6667C9.70154 16.6667 10 16.3682 10 16C10 15.6319 9.70154 15.3334 9.33335 15.3334C8.96516 15.3334 8.66669 15.6319 8.66669 16C8.66669 16.3682 8.96516 16.6667 9.33335 16.6667Z"/><path d="M10 16C10 15.6319 9.70154 15.3334 9.33335 15.3334C8.96516 15.3334 8.66669 15.6319 8.66669 16C8.66669 16.3682 8.96516 16.6667 9.33335 16.6667C9.70154 16.6667 10 16.3682 10 16Z"/></g></svg>

<svg xmlns="http://www.w3.org/2000/svg" fill="none" viewBox="0 0 28 28" focusable="false"><path fill="none" d="M0 0h28v28H0z"/><rect width="28" height="20" y="4" fill="#FFF" rx="3"/><rect width="28" height="20" y="4" rx="3"/><mask id="Eritrea_svg__a" width="28" height="20" x="0" y="4" mask-type="alpha" maskUnits="userSpaceOnUse"><rect width="28" height="20" y="4" fill="#FFF" rx="3"/><rect width="28" height="20" y="4" stroke="#979797" stroke-opacity="0" stroke-width="0" rx="3"/></mask><g mask="url(#Eritrea_svg__a)"><path fill="#29C53F" fill-rule="evenodd" d="M28 4v10H0V4z"/><path d="M28 14H0V4h28z"/></g><g mask="url(#Eritrea_svg__a)"><path fill="#579DED" fill-rule="evenodd" d="M28 14v10.66H0V14z"/><path d="M28 24.66H0V14h28z"/></g><g mask="url(#Eritrea_svg__a)"><path fill="#F42D56" fill-rule="evenodd" d="m0 24 28-10L0 4z"/><path d="M28 14 0 4v20z"/></g><g mask="url(#Eritrea_svg__a)"><path fill="none" d="M8.66 18.66c2.58 0 4.67-2.09 4.67-4.66 0-2.58-2.09-4.67-4.67-4.67A4.66 4.66 0 0 0 4 14c0 2.57 2.08 4.66 4.66 4.66"/><path fill="#FFC63C" fill-rule="evenodd" d="M13.33 14c0 2.57-2.09 4.66-4.67 4.66S4 16.57 4 14a4.66 4.66 0 0 1 4.66-4.67c2.58 0 4.67 2.09 4.67 4.67m-1.42-.77q.09.37.09.77 0 .39-.09.76-.07.27-.18.53-.11.28-.27.52-.19.29-.44.54t-.54.44q-.25.16-.52.28-.26.11-.54.17-.37.09-.76.09t-.76-.09q-.27-.06-.54-.17-.27-.12-.51-.28-.29-.19-.55-.44-.25-.25-.44-.54-.15-.24-.27-.52-.11-.26-.18-.53-.08-.37-.08-.76 0-.4.08-.77.07-.27.18-.53.12-.28.27-.52.19-.29.44-.54.26-.25.55-.44.24-.16.51-.28.27-.11.54-.17.37-.09.76-.09t.76.09q.28.06.54.17.27.12.52.28.29.19.54.44t.44.54q.16.24.27.52.11.26.18.53"/></g><g mask="url(#Eritrea_svg__a)"><path fill="#FFC63C" fill-rule="evenodd" d="M8 13.33c.36 0 .66-.3.66-.67S8.36 12 8 12c-.37 0-.67.29-.67.66s.3.67.67.67"/><path d="M8.66 12.66c0-.37-.3-.66-.66-.66-.37 0-.67.29-.67.66s.3.67.67.67c.36 0 .66-.3.66-.67"/></g><g mask="url(#Eritrea_svg__a)"><path fill="#FFC63C" fill-rule="evenodd" d="M9.33 13.99c.37 0 .67-.29.67-.66a.67.67 0 0 0-1.34 0c0 .37.3.66.67.66"/><path d="M10 13.33a.67.67 0 0 0-1.34 0c0 .37.3.66.67.66s.67-.29.67-.66"/></g><g mask="url(#Eritrea_svg__a)"><path fill="#FFC63C" fill-rule="evenodd" d="M8.66 12.66c.37 0 .67-.3.67-.66 0-.37-.3-.67-.67-.67S8 11.63 8 12c0 .36.29.66.66.66"/><path d="M9.33 12c0-.37-.3-.67-.67-.67S8 11.63 8 12c0 .36.29.66.66.66s.67-.3.67-.66"/></g><g mask="url(#Eritrea_svg__a)"><path fill="#FFC63C" fill-rule="evenodd" d="M8 14.66a.666.666 0 0 0 0-1.33c-.37 0-.67.3-.67.67 0 .36.3.66.67.66"/><path d="M8.66 14c0-.37-.3-.67-.66-.67-.37 0-.67.3-.67.67a.666.666 0 0 0 1.33 0"/></g><g mask="url(#Eritrea_svg__a)"><path fill="#FFC63C" fill-rule="evenodd" d="M9.33 15.33c.37 0 .67-.3.67-.67S9.7 14 9.33 14s-.67.29-.67.66.3.67.67.67"/><path d="M10 14.66c0-.37-.3-.66-.67-.66s-.67.29-.67.66a.67.67 0 0 0 1.34 0"/></g><g mask="url(#Eritrea_svg__a)"><path fill="#FFC63C" fill-rule="evenodd" d="M8 15.99c.36 0 .66-.29.66-.66s-.3-.67-.66-.67c-.37 0-.67.3-.67.67s.3.66.67.66"/><path d="M8.66 15.33c0-.37-.3-.67-.66-.67-.37 0-.67.3-.67.67s.3.66.67.66c.36 0 .66-.29.66-.66"/></g><g mask="url(#Eritrea_svg__a)"><path fill="#FFC63C" fill-rule="evenodd" d="M9.33 16.66c.37 0 .67-.3.67-.66a.67.67 0 0 0-1.34 0c0 .36.3.66.67.66"/><path d="M10 16a.67.67 0 0 0-1.34 0c0 .36.3.66.67.66s.67-.3.67-.66"/></g></svg>
